public/section4/but1.svg

<svg width="284" height="221" viewBox="0 0 284 221" fill="none" xmlns="http://www.w3.org/2000/svg">
<g filter="url(#filter0_d_24_6383)">
<mask id="path-1-outside-1_24_6383" maskUnits="userSpaceOnUse" x="-0.425842" y="-0.425781" width="284" height="220" fill="black">
<rect fill="white" x="-0.425842" y="-0.425781" width="284" height="220"/>
<path d="M263.602 7.74121C263.602 14.6333 269.112 20.2232 275.92 20.2529V198.766C269.167 198.795 263.692 204.296 263.604 211.111H19.7792C19.6917 204.333 14.2763 198.856 7.57416 198.768V20.251C14.3312 20.1616 19.7812 14.5959 19.7812 7.74121C19.7812 7.68546 19.78 7.6298 19.7792 7.57422H263.604C263.604 7.6298 263.602 7.68545 263.602 7.74121Z"/>
</mask>
<path d="M263.602 7.74121C263.602 14.6333 269.112 20.2232 275.92 20.2529V198.766C269.167 198.795 263.692 204.296 263.604 211.111H19.7792C19.6917 204.333 14.2763 198.856 7.57416 198.768V20.251C14.3312 20.1616 19.7812 14.5959 19.7812 7.74121C19.7812 7.68546 19.78 7.6298 19.7792 7.57422H263.604C263.604 7.6298 263.602 7.68545 263.602 7.74121Z" fill="#FDE0A3"/>
<path d="M263.602 7.74121C263.602 14.6333 269.112 20.2232 275.92 20.2529V198.766C269.167 198.795 263.692 204.296 263.604 211.111H19.7792C19.6917 204.333 14.2763 198.856 7.57416 198.768V20.251C14.3312 20.1616 19.7812 14.5959 19.7812 7.74121C19.7812 7.68546 19.78 7.6298 19.7792 7.57422H263.604C263.604 7.6298 263.602 7.68545 263.602 7.74121Z" fill="url(#paint0_linear_24_6383)"/>
<path d="M263.602 7.74121C263.602 14.6333 269.112 20.2232 275.92 20.2529V198.766C269.167 198.795 263.692 204.296 263.604 211.111H19.7792C19.6917 204.333 14.2763 198.856 7.57416 198.768V20.251C14.3312 20.1616 19.7812 14.5959 19.7812 7.74121C19.7812 7.68546 19.78 7.6298 19.7792 7.57422H263.604C263.604 7.6298 263.602 7.68545 263.602 7.74121Z" fill="#FCF0D6"/>
<path d="M263.602 7.74121L256.027 7.74115V7.74121H263.602ZM275.92 20.2529H283.494C283.494 16.0827 280.123 12.697 275.953 12.6788L275.92 20.2529ZM275.92 198.766L275.953 206.34C280.123 206.322 283.494 202.936 283.494 198.766H275.92ZM263.604 211.111V218.685C267.749 218.685 271.124 215.354 271.178 211.209L263.604 211.111ZM19.7792 211.111L12.2057 211.209C12.2592 215.354 15.6343 218.685 19.7792 218.685V211.111ZM7.57416 198.768H-6.67572e-06C-6.67572e-06 202.912 3.33032 206.286 7.47399 206.341L7.57416 198.768ZM7.57416 20.251L7.47398 12.6775C3.33032 12.7323 -6.67572e-06 16.1069 -6.67572e-06 20.251H7.57416ZM19.7812 7.74121H27.3554L27.3554 7.74115L19.7812 7.74121ZM19.7792 7.57422V5.43594e-05C17.7535 5.43594e-05 15.8121 0.811561 14.3889 2.25324C12.9658 3.69493 12.1795 5.64663 12.2057 7.67224L19.7792 7.57422ZM263.604 7.57422L271.178 7.67224C271.204 5.64663 270.418 3.69493 268.995 2.25325C267.572 0.811561 265.63 5.43594e-05 263.604 5.43594e-05V7.57422ZM263.602 7.74121H256.027C256.027 18.7261 264.832 27.7788 275.887 27.827L275.92 20.2529L275.953 12.6788C273.392 12.6677 271.176 10.5404 271.176 7.74121H263.602ZM275.92 20.2529H268.346V198.766H275.92H283.494V20.2529H275.92ZM275.92 198.766L275.887 191.192C264.919 191.239 256.171 200.15 256.031 211.014L263.604 211.111L271.178 211.209C271.214 208.442 273.415 206.351 275.953 206.34L275.92 198.766ZM263.604 211.111V203.537H19.7792V211.111V218.685H263.604V211.111ZM19.7792 211.111L27.3528 211.014C27.2132 200.208 18.5594 191.338 7.67432 191.194L7.57416 198.768L7.47399 206.341C9.99324 206.374 12.1702 208.459 12.2057 211.209L19.7792 211.111ZM7.57416 198.768H15.1483V20.251H7.57416H-6.67572e-06V198.768H7.57416ZM7.57416 20.251L7.67433 27.8245C18.6471 27.6793 27.3554 18.6675 27.3554 7.74121H19.7812H12.207C12.207 10.5244 10.0152 12.6439 7.47398 12.6775L7.57416 20.251ZM19.7812 7.74121L27.3554 7.74115C27.3554 7.66012 27.3545 7.59077 27.3539 7.54926C27.3528 7.47662 27.3532 7.50915 27.3528 7.4762L19.7792 7.57422L12.2057 7.67224C12.206 7.69686 12.2064 7.71929 12.2066 7.73399C12.2069 7.75152 12.207 7.7584 12.2071 7.76604C12.2073 7.78019 12.207 7.76654 12.207 7.74127L19.7812 7.74121ZM19.7792 7.57422V15.1484H263.604V7.57422V5.43594e-05H19.7792V7.57422ZM263.604 7.57422L256.031 7.47619C256.031 7.45746 256.031 7.44569 256.031 7.448C256.031 7.44902 256.031 7.45129 256.031 7.45756C256.031 7.46221 256.031 7.47296 256.031 7.48286C256.03 7.51959 256.027 7.6207 256.027 7.74115L263.602 7.74121L271.176 7.74127C271.176 7.77667 271.175 7.8037 271.175 7.81822C271.175 7.83196 271.175 7.83963 271.175 7.83245C271.175 7.82842 271.175 7.82527 271.175 7.816C271.175 7.80836 271.176 7.79672 271.176 7.78384C271.177 7.75834 271.177 7.71877 271.178 7.67224L263.604 7.57422Z" fill="#FDE0A3" mask="url(#path-1-outside-1_24_6383)"/>
<path d="M263.602 7.74121L256.027 7.74115V7.74121H263.602ZM275.92 20.2529H283.494C283.494 16.0827 280.123 12.697 275.953 12.6788L275.92 20.2529ZM275.92 198.766L275.953 206.34C280.123 206.322 283.494 202.936 283.494 198.766H275.92ZM263.604 211.111V218.685C267.749 218.685 271.124 215.354 271.178 211.209L263.604 211.111ZM19.7792 211.111L12.2057 211.209C12.2592 215.354 15.6343 218.685 19.7792 218.685V211.111ZM7.57416 198.768H-6.67572e-06C-6.67572e-06 202.912 3.33032 206.286 7.47399 206.341L7.57416 198.768ZM7.57416 20.251L7.47398 12.6775C3.33032 12.7323 -6.67572e-06 16.1069 -6.67572e-06 20.251H7.57416ZM19.7812 7.74121H27.3554L27.3554 7.74115L19.7812 7.74121ZM19.7792 7.57422V5.43594e-05C17.7535 5.43594e-05 15.8121 0.811561 14.3889 2.25324C12.9658 3.69493 12.1795 5.64663 12.2057 7.67224L19.7792 7.57422ZM263.604 7.57422L271.178 7.67224C271.204 5.64663 270.418 3.69493 268.995 2.25325C267.572 0.811561 265.63 5.43594e-05 263.604 5.43594e-05V7.57422ZM263.602 7.74121H256.027C256.027 18.7261 264.832 27.7788 275.887 27.827L275.92 20.2529L275.953 12.6788C273.392 12.6677 271.176 10.5404 271.176 7.74121H263.602ZM275.92 20.2529H268.346V198.766H275.92H283.494V20.2529H275.92ZM275.92 198.766L275.887 191.192C264.919 191.239 256.171 200.15 256.031 211.014L263.604 211.111L271.178 211.209C271.214 208.442 273.415 206.351 275.953 206.34L275.92 198.766ZM263.604 211.111V203.537H19.7792V211.111V218.685H263.604V211.111ZM19.7792 211.111L27.3528 211.014C27.2132 200.208 18.5594 191.338 7.67432 191.194L7.57416 198.768L7.47399 206.341C9.99324 206.374 12.1702 208.459 12.2057 211.209L19.7792 211.111ZM7.57416 198.768H15.1483V20.251H7.57416H-6.67572e-06V198.768H7.57416ZM7.57416 20.251L7.67433 27.8245C18.6471 27.6793 27.3554 18.6675 27.3554 7.74121H19.7812H12.207C12.207 10.5244 10.0152 12.6439 7.47398 12.6775L7.57416 20.251ZM19.7812 7.74121L27.3554 7.74115C27.3554 7.66012 27.3545 7.59077 27.3539 7.54926C27.3528 7.47662 27.3532 7.50915 27.3528 7.4762L19.7792 7.57422L12.2057 7.67224C12.206 7.69686 12.2064 7.71929 12.2066 7.73399C12.2069 7.75152 12.207 7.7584 12.2071 7.76604C12.2073 7.78019 12.207 7.76654 12.207 7.74127L19.7812 7.74121ZM19.7792 7.57422V15.1484H263.604V7.57422V5.43594e-05H19.7792V7.57422ZM263.604 7.57422L256.031 7.47619C256.031 7.45746 256.031 7.44569 256.031 7.448C256.031 7.44902 256.031 7.45129 256.031 7.45756C256.031 7.46221 256.031 7.47296 256.031 7.48286C256.03 7.51959 256.027 7.6207 256.027 7.74115L263.602 7.74121L271.176 7.74127C271.176 7.77667 271.175 7.8037 271.175 7.81822C271.175 7.83196 271.175 7.83963 271.175 7.83245C271.175 7.82842 271.175 7.82527 271.175 7.816C271.175 7.80836 271.176 7.79672 271.176 7.78384C271.177 7.75834 271.177 7.71877 271.178 7.67224L263.604 7.57422Z" fill="url(#paint1_linear_24_6383)" mask="url(#path-1-outside-1_24_6383)"/>
</g>
<defs>
<filter id="filter0_d_24_6383" x="0" y="0" width="283.494" height="220.468" filterUnits="userSpaceOnUse" color-interpolation-filters="sRGB">
<feFlood flood-opacity="0" result="BackgroundImageFix"/>
<feColorMatrix in="SourceAlpha" type="matrix" values="0 0 0 0 0 0 0 0 0 0 0 0 0 0 0 0 0 0 127 0" result="hardAlpha"/>
<feOffset dy="1.78216"/>
<feComposite in2="hardAlpha" operator="out"/>
<feColorMatrix type="matrix" values="0 0 0 0 0.913725 0 0 0 0 0.498039 0 0 0 0 0.0392157 0 0 0 1 0"/>
<feBlend mode="normal" in2="BackgroundImageFix" result="effect1_dropShadow_24_6383"/>
<feBlend mode="normal" in="SourceGraphic" in2="effect1_dropShadow_24_6383" result="shape"/>
</filter>
<linearGradient id="paint0_linear_24_6383" x1="7.57416" y1="109.343" x2="275.92" y2="109.343" gradientUnits="userSpaceOnUse">
<stop stop-color="#3C3024"/>
<stop offset="1" stop-color="#BD7B49"/>
</linearGradient>
<linearGradient id="paint1_linear_24_6383" x1="141.747" y1="211.111" x2="141.747" y2="7.57422" gradientUnits="userSpaceOnUse">
<stop stop-color="#3C3024"/>
<stop offset="1" stop-color="#BD7B49"/>
</linearGradient>
</defs>
</svg>

<svg xmlns="http://www.w3.org/2000/svg" width="284" height="221" fill="none" viewBox="0 0 284 221"><g filter="url(#a)"><mask id="c" width="284" height="220" x="-.43" y="-.43" fill="#000" maskUnits="userSpaceOnUse"><path fill="#fff" d="M-.43-.43h284v220h-284z"/><path d="M263.6 7.74c0 6.89 5.51 12.48 12.32 12.51v178.52c-6.75.02-12.23 5.53-12.32 12.34H19.78c-.09-6.78-5.5-12.25-12.21-12.34V20.25c6.76-.09 12.21-5.65 12.21-12.51v-.17H263.6z"/></mask><path fill="#fde0a3" d="M263.6 7.74c0 6.89 5.51 12.48 12.32 12.51v178.52c-6.75.02-12.23 5.53-12.32 12.34H19.78c-.09-6.78-5.5-12.25-12.21-12.34V20.25c6.76-.09 12.21-5.65 12.21-12.51v-.17H263.6z"/><path fill="url(#b)" d="M263.6 7.74c0 6.89 5.51 12.48 12.32 12.51v178.52c-6.75.02-12.23 5.53-12.32 12.34H19.78c-.09-6.78-5.5-12.25-12.21-12.34V20.25c6.76-.09 12.21-5.65 12.21-12.51v-.17H263.6z"/><path fill="#fcf0d6" d="M263.6 7.74c0 6.89 5.51 12.48 12.32 12.51v178.52c-6.75.02-12.23 5.53-12.32 12.34H19.78c-.09-6.78-5.5-12.25-12.21-12.34V20.25c6.76-.09 12.21-5.65 12.21-12.51v-.17H263.6z"/><path fill="#fde0a3" d="M263.6 7.74h-7.57zm12.32 12.51h7.57c0-4.17-3.37-7.55-7.54-7.57zm0 178.52.03 7.57c4.17-.02 7.54-3.4 7.54-7.57zm-12.32 12.34v7.58c4.15 0 7.52-3.34 7.58-7.48zm-243.82 0-7.57.1a7.57 7.57 0 0 0 7.57 7.48zM7.57 198.77H0c0 4.14 3.33 7.52 7.47 7.57zm0-178.52-.1-7.57C3.33 12.73 0 16.11 0 20.25zM19.78 7.74h7.58zm0-.17V0a7.565 7.565 0 0 0-7.57 7.67zm243.82 0 7.58.1A7.62 7.62 0 0 0 269 2.25 7.6 7.6 0 0 0 263.6 0zm0 .17h-7.57c0 10.99 8.8 20.04 19.86 20.09l.03-7.58.03-7.57c-2.56-.01-4.77-2.14-4.77-4.94zm12.32 12.51h-7.57v178.52h15.14V20.25zm0 178.52-.03-7.58c-10.97.05-19.72 8.96-19.86 19.82l7.57.1 7.58.1c.03-2.77 2.24-4.86 4.77-4.87zm-12.32 12.34v-7.57H19.78v15.15H263.6zm-243.82 0 7.57-.1c-.14-10.8-8.79-19.67-19.68-19.82l-.1 7.58-.1 7.57c2.52.03 4.7 2.12 4.74 4.87zM7.57 198.77h7.58V20.25H0v178.52zm0-178.52.1 7.57c10.98-.14 19.69-9.15 19.69-20.08H12.21c0 2.78-2.19 4.9-4.74 4.94zM19.78 7.74h7.58c0-.08-.01-.15-.01-.19v-.07l-7.57.09-7.57.1v.1-.03zm0-.17v7.58H263.6V0H19.78zm243.82 0-7.57-.09v-.03.29h15.15v.09-.16z" mask="url(#c)"/><path fill="url(#d)" d="M263.6 7.74h-7.57zm12.32 12.51h7.57c0-4.17-3.37-7.55-7.54-7.57zm0 178.52.03 7.57c4.17-.02 7.54-3.4 7.54-7.57zm-12.32 12.34v7.58c4.15 0 7.52-3.34 7.58-7.48zm-243.82 0-7.57.1a7.57 7.57 0 0 0 7.57 7.48zM7.57 198.77H0c0 4.14 3.33 7.52 7.47 7.57zm0-178.52-.1-7.57C3.33 12.73 0 16.11 0 20.25zM19.78 7.74h7.58zm0-.17V0a7.565 7.565 0 0 0-7.57 7.67zm243.82 0 7.58.1A7.62 7.62 0 0 0 269 2.25 7.6 7.6 0 0 0 263.6 0zm0 .17h-7.57c0 10.99 8.8 20.04 19.86 20.09l.03-7.58.03-7.57c-2.56-.01-4.77-2.14-4.77-4.94zm12.32 12.51h-7.57v178.52h15.14V20.25zm0 178.52-.03-7.58c-10.97.05-19.72 8.96-19.86 19.82l7.57.1 7.58.1c.03-2.77 2.24-4.86 4.77-4.87zm-12.32 12.34v-7.57H19.78v15.15H263.6zm-243.82 0 7.57-.1c-.14-10.8-8.79-19.67-19.68-19.82l-.1 7.58-.1 7.57c2.52.03 4.7 2.12 4.74 4.87zM7.57 198.77h7.58V20.25H0v178.52zm0-178.52.1 7.57c10.98-.14 19.69-9.15 19.69-20.08H12.21c0 2.78-2.19 4.9-4.74 4.94zM19.78 7.74h7.58c0-.08-.01-.15-.01-.19v-.07l-7.57.09-7.57.1v.1-.03zm0-.17v7.58H263.6V0H19.78zm243.82 0-7.57-.09v-.03.29h15.15v.09-.16z" mask="url(#c)"/></g><defs><linearGradient id="b" x1="7.57" x2="275.92" y1="109.34" y2="109.34" gradientUnits="userSpaceOnUse"><stop stop-color="#3c3024"/><stop offset="1" stop-color="#bd7b49"/></linearGradient><linearGradient id="d" x1="141.75" x2="141.75" y1="211.11" y2="7.57" gradientUnits="userSpaceOnUse"><stop stop-color="#3c3024"/><stop offset="1" stop-color="#bd7b49"/></linearGradient><filter id="a" width="283.49" height="220.47" x="0" y="0" color-interpolation-filters="sRGB" filterUnits="userSpaceOnUse"><feFlood flood-opacity="0" result="BackgroundImageFix"/><feColorMatrix in="SourceAlpha" result="hardAlpha" values="0 0 0 0 0 0 0 0 0 0 0 0 0 0 0 0 0 0 127 0"/><feOffset dy="1.78"/><feComposite in2="hardAlpha" operator="out"/><feColorMatrix values="0 0 0 0 0.91 0 0 0 0 0.50 0 0 0 0 0.04 0 0 0 1 0"/><feBlend in2="BackgroundImageFix" result="effect1_dropShadow_24_6383"/><feBlend in="SourceGraphic" in2="effect1_dropShadow_24_6383" result="shape"/></filter></defs></svg>
